images/diagram.svg

<svg width="70" height="70" viewBox="0 0 70 70" fill="none" xmlns="http://www.w3.org/2000/svg">
<g clip-path="url(#clip0_1_354)">
<path d="M32.6496 32.7351H34.9817V43.2296H32.6496V32.7351Z" fill="#2196F3"/>
<path d="M41.978 37.3993H44.3101V43.2296H41.978V37.3993Z" fill="#2196F3"/>
<path d="M23.3211 40.8975H25.6532V43.2296H23.3211V40.8975Z" fill="#2196F3"/>
<path d="M16.3248 39.7314H18.6569V43.2295H16.3248V39.7314Z" fill="#2196F3"/>
<path d="M3.49817 61.6874H59.4689C61.4007 61.6874 62.967 60.121 62.967 58.1892V53.525C62.967 51.5931 61.4007 50.0268 59.4689 50.0268H58.3028V20.9477L64.9262 14.6733C66.4635 15.4311 68.3242 14.9711 69.3302 13.5824C70.3369 12.1943 70.1957 10.2829 68.9966 9.05768C67.7975 7.83241 65.8901 7.64964 64.4798 8.62496C63.0701 9.60085 62.569 11.4507 63.2933 13.0045L58.3028 17.7353V15.0451C58.3028 13.1133 56.7365 11.5469 54.8046 11.5469H8.16239C6.23054 11.5469 4.66422 13.1133 4.66422 15.0451V50.0268H3.49817C1.56632 50.0268 0 51.5931 0 53.525V58.1892C0 60.121 1.56632 61.6874 3.49817 61.6874ZM66.4652 10.3809C67.1091 10.3809 67.6313 10.903 67.6313 11.5469C67.6313 12.1909 67.1091 12.713 66.4652 12.713C65.8212 12.713 65.2991 12.1909 65.2991 11.5469C65.2991 10.903 65.8212 10.3809 66.4652 10.3809ZM6.99634 15.0451C6.99634 14.4012 7.51844 13.879 8.16239 13.879H54.8046C55.4486 13.879 55.9707 14.4012 55.9707 15.0451V19.9422L53.6386 22.1582V17.3772C53.6386 16.7333 53.1165 16.2112 52.4725 16.2112H10.4945C9.85055 16.2112 9.32845 16.7333 9.32845 17.3772V46.5286C9.32845 47.1726 9.85055 47.6947 10.4945 47.6947H52.4725C53.1165 47.6947 53.6386 47.1726 53.6386 46.5286V25.366L55.9707 23.1563V50.0268H6.99634V15.0451ZM17.4908 30.2038C15.9131 30.1993 14.5279 31.2503 14.1083 32.7711C13.6886 34.2919 14.3383 35.9049 15.6951 36.71C17.0513 37.515 18.7793 37.3129 19.9129 36.2157L23.9662 38.2495C24.4371 38.4852 25.0081 38.3748 25.3583 37.9813L33.9745 28.2879L42.4443 34.6346C42.8987 34.9751 43.5329 34.9387 43.9452 34.5486L51.3065 27.5757V45.3626H11.6606V18.5433H51.3065V24.3627L43.0564 32.1755L34.5154 25.7725C34.0303 25.4092 33.3476 25.4775 32.9445 25.9302L24.2099 35.758L20.9446 34.125C20.9685 33.985 20.9833 33.8438 20.989 33.702C20.989 31.7702 19.4227 30.2038 17.4908 30.2038ZM18.6569 33.702C18.6569 34.346 18.1348 34.8681 17.4908 34.8681C16.8469 34.8681 16.3248 34.346 16.3248 33.702C16.3248 33.0581 16.8469 32.5359 17.4908 32.5359C18.1348 32.5359 18.6569 33.0581 18.6569 33.702ZM25.6532 52.3589H37.3138V53.525C37.3138 54.1689 36.7917 54.691 36.1477 54.691H26.8193C26.1753 54.691 25.6532 54.1689 25.6532 53.525V52.3589ZM2.33211 53.525C2.33211 52.881 2.85422 52.3589 3.49817 52.3589H23.3211V53.525C23.3211 55.4568 24.8874 57.0231 26.8193 57.0231H36.1477C38.0796 57.0231 39.6459 55.4568 39.6459 53.525V52.3589H59.4689C60.1128 52.3589 60.6349 52.881 60.6349 53.525V58.1892C60.6349 58.8331 60.1128 59.3552 59.4689 59.3552H3.49817C2.85422 59.3552 2.33211 58.8331 2.33211 58.1892V53.525Z" fill="#212121"/>
</g>
<defs>
<clipPath id="clip0_1_354">
<rect width="70" height="70" fill="white"/>
</clipPath>
</defs>
</svg>

<svg width="70" height="70" fill="none" xmlns="http://www.w3.org/2000/svg"><g clip-path="url(#a)"><path d="M32.65 32.735h2.332V43.23H32.65V32.735ZM41.978 37.4h2.332v5.83h-2.332V37.4ZM23.321 40.898h2.332v2.332h-2.332v-2.332ZM16.325 39.731h2.332v3.498h-2.332v-3.498Z" fill="#2196F3"/><path d="M3.498 61.687h55.97a3.498 3.498 0 0 0 3.499-3.498v-4.664a3.498 3.498 0 0 0-3.498-3.498h-1.166v-29.08l6.623-6.274a3.518 3.518 0 1 0-1.633-1.668l-4.99 4.73v-2.69a3.498 3.498 0 0 0-3.498-3.498H8.162a3.498 3.498 0 0 0-3.498 3.498v34.982H3.498A3.498 3.498 0 0 0 0 53.525v4.664a3.498 3.498 0 0 0 3.498 3.498Zm62.967-51.306a1.166 1.166 0 1 1 0 2.332 1.166 1.166 0 0 1 0-2.332ZM6.996 15.045c0-.644.522-1.166 1.166-1.166h46.643c.644 0 1.166.522 1.166 1.166v4.897l-2.332 2.216v-4.78c0-.645-.523-1.167-1.167-1.167H10.495c-.644 0-1.167.522-1.167 1.166V46.53c0 .644.523 1.166 1.167 1.166h41.977c.645 0 1.167-.522 1.167-1.166V25.366l2.332-2.21v26.87H6.996v-34.98Zm10.495 15.159a3.498 3.498 0 1 0 2.422 6.012l4.053 2.033c.471.236 1.042.126 1.392-.268l8.616-9.693 8.47 6.347c.455.34 1.089.304 1.501-.086l7.361-6.973v17.787H11.661v-26.82h39.645v5.82l-8.25 7.813-8.54-6.404a1.167 1.167 0 0 0-1.572.158l-8.734 9.828-3.265-1.633a3.3 3.3 0 0 0 .044-.423 3.498 3.498 0 0 0-3.498-3.498Zm1.166 3.498a1.166 1.166 0 1 1-2.332 0 1.166 1.166 0 0 1 2.332 0Zm6.996 18.657h11.66v1.166c0 .644-.521 1.166-1.165 1.166h-9.329a1.166 1.166 0 0 1-1.166-1.166v-1.166Zm-23.32 1.166c0-.644.521-1.166 1.165-1.166h19.823v1.166a3.498 3.498 0 0 0 3.498 3.498h9.329a3.498 3.498 0 0 0 3.498-3.498v-1.166h19.823c.644 0 1.166.522 1.166 1.166v4.664c0 .644-.522 1.166-1.166 1.166H3.499a1.166 1.166 0 0 1-1.167-1.166v-4.664Z" fill="#212121"/></g><defs><clipPath id="a"><path fill="#fff" d="M0 0h70v70H0z"/></clipPath></defs></svg>
